modules/hawcons-stroke/icons/icon-10-basketball.svg

<?xml version="1.0" encoding="UTF-8" standalone="no"?>
<svg width="32px" height="32px" viewBox="0 0 32 32" version="1.1" xmlns="http://www.w3.org/2000/svg" xmlns:xlink="http://www.w3.org/1999/xlink" xmlns:sketch="http://www.bohemiancoding.com/sketch/ns">
    <!-- Generator: Sketch 3.0.3 (7891) - http://www.bohemiancoding.com/sketch -->
    <title>icon 10 basketball</title>
    <desc>Created with Sketch.</desc>
    <defs></defs>
    <g id="Page-1" stroke="none" stroke-width="1" fill="none" fill-rule="evenodd" sketch:type="MSPage">
        <g id="icon-10-basketball" sketch:type="MSArtboardGroup" fill="#929292">
            <path d="M17.2452463,27.9762398 C16.9988607,27.9919994 16.7503647,28 16.5,28 C10.9990465,28 6.40019834,24.1376305 5.26739348,18.9768297 L5.26739348,18.9768297 C9.84541325,18.6995719 13.7584117,15.9582992 15.6975238,12.0618764 C17.593363,13.3166785 19.2445947,14.911349 20.5643631,16.7590323 C18.3592621,19.0129331 17,22.0977301 17,25.5 C17,26.347773 17.0843966,27.1758341 17.2452463,27.9762398 L17.2452463,27.9762398 Z M18.2441824,27.868585 C20.3670169,27.5455921 22.2991173,26.6422091 23.8735394,25.3253802 L23.8735394,25.3253802 C23.5440266,22.511233 22.5829211,19.8901106 21.1357778,17.607568 C19.1917389,19.6670737 18,22.444364 18,25.5 C18,26.3119289 18.0841422,27.1042053 18.2441824,27.868585 L18.2441824,27.868585 Z M27.5068724,13.1580363 C26.1132548,8.56208345 21.9199043,5.18349399 16.9117882,5.00723521 L16.9117882,5.00723521 C16.9700359,5.49670469 17,5.9948531 17,6.5 C17,8.13855214 16.6847274,9.70346838 16.1115344,11.1373965 C18.1289119,12.4483984 19.8886776,14.1223659 21.2982743,16.0667417 C23.0189265,14.5694528 25.1531527,13.5351909 27.5068724,13.1580363 L27.5068724,13.1580363 Z M27.7558169,14.1314117 C27.9158576,14.8957925 28,15.68807 28,16.5 C28,19.6050212 26.7694281,22.4226267 24.7693759,24.4917249 L24.7693759,24.4917249 C24.3409548,21.7250739 23.3309562,19.1505935 21.8682394,16.8971432 C23.4874966,15.4596158 25.5154362,14.4722929 27.7558176,14.131415 L27.7558169,14.1314117 Z M5.09497956,17.9848741 C5.03231387,17.4987714 5,17.0031594 5,16.5 C5,13.6939973 6.0049722,11.1227185 7.67461979,9.12646059 C10.2661736,9.42990955 12.6940306,10.2689874 14.8445154,11.5300185 C13.0603479,15.1924304 9.38849894,17.7660527 5.09497956,17.9848741 L5.09497956,17.9848741 L5.09497956,17.9848741 Z M15.9050204,5.01512592 C13.035905,5.16135183 10.4443958,6.35911192 8.50827512,8.23062411 C10.9300043,8.60563337 13.2044923,9.42624763 15.2453159,10.6060438 C15.7328959,9.33083346 16,7.9466095 16,6.5 C16,5.99684064 15.9676861,5.5012286 15.9050204,5.01512592 L15.9050204,5.01512592 L15.9050204,5.01512592 Z M4.15888781,18.4984344 C4.05433021,17.8477143 4,17.1802019 4,16.5 C4,9.59644029 9.59644029,4 16.5,4 C23.4035597,4 29,9.59644029 29,16.5 C29,23.4035597 23.4035597,29 16.5,29 C10.4517361,29 5.40677166,24.7043671 4.24954634,18.9975409 C4.21604173,18.8323317 4.18580077,18.6659399 4.15888706,18.4984354 L4.15888781,18.4984344 L4.15888781,18.4984344 Z" id="basketball" sketch:type="MSShapeGroup"></path>
        </g>
    </g>
</svg>

<svg width="32" height="32" viewBox="0 0 32 32" xmlns="http://www.w3.org/2000/svg"><path d="M17.245 27.976C17 27.992 16.75 28 16.5 28c-5.501 0-10.1-3.862-11.233-9.023 4.578-.277 8.491-3.019 10.43-6.915a18.603 18.603 0 0 1 4.867 4.697A12.46 12.46 0 0 0 17 25.5c0 .848.084 1.676.245 2.476zm1-.107a11.452 11.452 0 0 0 5.629-2.544 18.386 18.386 0 0 0-2.738-7.717A11.46 11.46 0 0 0 18 25.5c0 .812.084 1.604.244 2.369zm9.262-14.711c-1.394-4.596-5.587-7.975-10.595-8.15.058.489.088.987.088 1.492 0 1.639-.315 3.203-.888 4.637a19.607 19.607 0 0 1 5.186 4.93 12.453 12.453 0 0 1 6.209-2.909zm.249.973c.16.765.244 1.557.244 2.369 0 3.105-1.23 5.923-3.23 7.992a19.382 19.382 0 0 0-2.902-7.595 11.458 11.458 0 0 1 5.888-2.766zM5.095 17.985A11.61 11.61 0 0 1 5 16.5c0-2.806 1.005-5.377 2.675-7.374a18.38 18.38 0 0 1 7.17 2.404 11.503 11.503 0 0 1-9.75 6.455zm10.81-12.97a11.46 11.46 0 0 0-7.397 3.216 19.37 19.37 0 0 1 6.737 2.375C15.733 9.331 16 7.946 16 6.5c0-.503-.032-.999-.095-1.485zM4.159 18.498A12.59 12.59 0 0 1 4 16.5C4 9.596 9.596 4 16.5 4S29 9.596 29 16.5 23.404 29 16.5 29c-6.048 0-11.093-4.296-12.25-10.002a12.441 12.441 0 0 1-.091-.5z" fill="#929292" fill-rule="evenodd"/></svg>
